assets/features/channel/southeast-asia1/Eastwast.svg

<svg width="80" height="80" viewBox="0 0 80 80" fill="none" xmlns="http://www.w3.org/2000/svg">
<rect width="80" height="80" rx="8" fill="#DDDF3B"/>
<path d="M43.7111 35.1802L52.8966 41.9621C59.8818 47.121 56.3977 49.8382 56.3807 49.8516L58.2022 48.489C60.5922 46.7011 62.2294 44.9381 63.058 43.4447C63.729 42.2323 64 41.0637 64 39.8525C64 36.7269 61.9269 33.9994 58.2022 31.2155L39.999 17.6001C39.999 17.6001 35.0481 28.786 43.7111 35.1802Z" fill="url(#paint0_linear_2497_22870)"/>
<path d="M21.7978 31.2155C19.4059 33.004 17.7706 34.7664 16.942 36.2598C16.2685 37.4727 16 38.6408 16 39.8525C16 42.9775 18.073 45.7045 21.7978 48.489L39.9991 62.1038C39.9991 62.1038 44.9519 50.9185 36.2895 44.5237L27.104 37.7418C20.1012 32.572 23.6192 29.8535 23.6192 29.8535L21.7978 31.2155Z" fill="url(#paint1_linear_2497_22870)"/>
<path d="M23.4798 29.9583C23.1719 30.2752 22.7209 30.9301 22.7209 31.8674C22.7209 33.2021 23.5999 35.1735 27.0949 37.7539C28.1659 38.5451 29.1121 39.2443 29.948 39.861C33.1145 37.5242 28.5945 40.8625 36.2895 35.1802C38.0267 33.8976 39.2166 32.4205 40.0076 30.8804C38.9571 28.8405 38.6062 26.6897 38.6062 24.7231C38.6062 20.9529 39.9076 17.8509 39.9991 17.6001L23.4798 29.9583Z" fill="url(#paint2_linear_2497_22870)"/>
<path d="M43.7112 44.5236C41.9722 45.8068 40.783 47.2821 39.9919 48.8234C41.0412 50.8639 41.3933 53.0153 41.3933 54.9801C41.3933 58.6922 40.1392 61.7572 39.9974 62.0989L39.9993 62.1037L56.5373 49.7346C56.7998 49.4474 57.2793 48.7719 57.2793 47.8358C57.2793 46.5023 56.3985 44.5309 52.9059 41.9493C51.8343 41.1575 50.8875 40.4601 50.0504 39.8428C46.8845 42.1802 51.4063 38.8419 43.7112 44.5236Z" fill="url(#paint3_linear_2497_22870)"/>
<path d="M49.9132 39.7409C46.8418 37.4732 45.2907 36.3293 44.5118 35.7532C43.7208 35.1691 43.7196 35.1691 43.7196 35.1691C42.0048 33.9023 40.8246 32.4476 40.0336 30.9299L39.9997 30.8984L39.9633 30.9312C39.1735 32.4482 37.9958 33.9029 36.2798 35.1679C28.712 40.7557 32.9569 37.621 30.091 39.7373L29.9619 39.8524L30.0898 39.9657C36.2749 44.5314 36.2798 44.5362 36.2798 44.5362C37.997 45.8025 39.1759 47.2571 39.9663 48.7766L39.9997 48.8069L40.0336 48.7772C40.8246 47.2571 42.0036 45.8031 43.7196 44.5362C51.291 38.9466 47.0376 42.0862 49.9132 39.9638L50.0387 39.8536L49.9132 39.7409Z" fill="#DEDF38"/>
<defs>
<linearGradient id="paint0_linear_2497_22870" x1="60.8984" y1="47.2371" x2="37.402" y2="19.2218" gradientUnits="userSpaceOnUse">
<stop stop-color="#591A7C"/>
<stop offset="0.0500031" stop-color="#591A7C"/>
<stop offset="0.170334" stop-color="#920884"/>
<stop offset="0.381485" stop-color="#731885"/>
<stop offset="0.766663" stop-color="#591A7C"/>
<stop offset="0.949997" stop-color="#43165D"/>
<stop offset="1" stop-color="#43165D"/>
</linearGradient>
<linearGradient id="paint1_linear_2497_22870" x1="19.1017" y1="32.4773" x2="42.5862" y2="60.4786" gradientUnits="userSpaceOnUse">
<stop stop-color="#E40084"/>
<stop offset="0.00549316" stop-color="#E40084"/>
<stop offset="0.151855" stop-color="#C40075"/>
<stop offset="0.368134" stop-color="#B5006C"/>
<stop offset="0.5" stop-color="#B5006C"/>
<stop offset="1" stop-color="#76146C"/>
</linearGradient>
<linearGradient id="paint2_linear_2497_22870" x1="40.2037" y1="29.2321" x2="25.5926" y2="29.2321" gradientUnits="userSpaceOnUse">
<stop stop-color="#E40084"/>
<stop offset="0.00549316" stop-color="#E40084"/>
<stop offset="0.151855" stop-color="#C40075"/>
<stop offset="0.5" stop-color="#B5006C"/>
<stop offset="1" stop-color="#8A0F6C"/>
</linearGradient>
<linearGradient id="paint3_linear_2497_22870" x1="57.4629" y1="50.4595" x2="42.8646" y2="50.4595" gradientUnits="userSpaceOnUse">
<stop stop-color="#521C72"/>
<stop offset="0.149994" stop-color="#521C72"/>
<stop offset="0.5" stop-color="#591A7C"/>
<stop offset="0.75" stop-color="#731885"/>
<stop offset="1" stop-color="#920884"/>
</linearGradient>
</defs>
</svg>

<svg xmlns="http://www.w3.org/2000/svg" width="80" height="80" fill="none" viewBox="0 0 80 80"><rect width="80" height="80" fill="#dddf3b" rx="8"/><path fill="url(#a)" d="m43.711 35.18 9.186 6.782c6.985 5.159 3.5 7.876 3.484 7.89l1.821-1.363c2.39-1.788 4.027-3.55 4.856-5.044.671-1.213.942-2.381.942-3.593 0-3.125-2.073-5.853-5.798-8.636L40 17.6s-4.95 11.186 3.712 17.58"/><path fill="url(#b)" d="M21.798 31.216c-2.392 1.788-4.027 3.55-4.856 5.044-.674 1.213-.942 2.38-.942 3.593 0 3.124 2.073 5.852 5.798 8.636l18.201 13.615s4.953-11.185-3.71-17.58l-9.185-6.782c-7.003-5.17-3.485-7.888-3.485-7.888z"/><path fill="url(#c)" d="M23.48 29.958a2.75 2.75 0 0 0-.76 1.91c0 1.334.88 3.305 4.375 5.886l2.853 2.107c3.166-2.337-1.354 1.002 6.341-4.68 1.738-1.283 2.928-2.76 3.719-4.3-1.05-2.04-1.402-4.191-1.402-6.158 0-3.77 1.302-6.872 1.393-7.123z"/><path fill="url(#d)" d="M43.711 44.524c-1.739 1.283-2.928 2.758-3.72 4.3 1.05 2.04 1.402 4.191 1.402 6.156 0 3.712-1.254 6.777-1.396 7.119l.002.005 16.538-12.37c.263-.287.742-.962.742-1.898 0-1.334-.88-3.305-4.373-5.887l-2.856-2.106z"/><path fill="#dedf38" d="M49.913 39.74c-3.071-2.267-4.622-3.41-5.401-3.987l-.792-.584c-1.715-1.267-2.895-2.721-3.686-4.24L40 30.9l-.037.032c-.79 1.517-1.967 2.972-3.683 4.237l-6.189 4.57-.13.114.129.114c6.185 4.565 6.19 4.57 6.19 4.57 1.717 1.267 2.896 2.721 3.686 4.24l.034.03.034-.029c.79-1.52 1.97-2.974 3.686-4.24l6.193-4.573.126-.11z"/><defs><linearGradient id="a" x1="60.898" x2="37.402" y1="47.237" y2="19.222" gradientUnits="userSpaceOnUse"><stop stop-color="#591a7c"/><stop offset=".05" stop-color="#591a7c"/><stop offset=".17" stop-color="#920884"/><stop offset=".381" stop-color="#731885"/><stop offset=".767" stop-color="#591a7c"/><stop offset=".95" stop-color="#43165d"/><stop offset="1" stop-color="#43165d"/></linearGradient><linearGradient id="b" x1="19.102" x2="42.586" y1="32.477" y2="60.479" gradientUnits="userSpaceOnUse"><stop stop-color="#e40084"/><stop offset=".005" stop-color="#e40084"/><stop offset=".152" stop-color="#c40075"/><stop offset=".368" stop-color="#b5006c"/><stop offset=".5" stop-color="#b5006c"/><stop offset="1" stop-color="#76146c"/></linearGradient><linearGradient id="c" x1="40.204" x2="25.593" y1="29.232" y2="29.232" gradientUnits="userSpaceOnUse"><stop stop-color="#e40084"/><stop offset=".005" stop-color="#e40084"/><stop offset=".152" stop-color="#c40075"/><stop offset=".5" stop-color="#b5006c"/><stop offset="1" stop-color="#8a0f6c"/></linearGradient><linearGradient id="d" x1="57.463" x2="42.865" y1="50.459" y2="50.459" gradientUnits="userSpaceOnUse"><stop stop-color="#521c72"/><stop offset=".15" stop-color="#521c72"/><stop offset=".5" stop-color="#591a7c"/><stop offset=".75" stop-color="#731885"/><stop offset="1" stop-color="#920884"/></linearGradient></defs></svg>
